icons/gear-24.svg

<svg width="24" height="24" viewBox="0 0 24 24" xmlns="http://www.w3.org/2000/svg">
  <path fill-rule="evenodd" clip-rule="evenodd" d="M16 12C16 14.2091 14.2091 16 12 16C9.79086 16 8 14.2091 8 12C8 9.79086 9.79086 8 12 8C14.2091 8 16 9.79086 16 12ZM14.5 12C14.5 13.3807 13.3807 14.5 12 14.5C10.6193 14.5 9.5 13.3807 9.5 12C9.5 10.6193 10.6193 9.5 12 9.5C13.3807 9.5 14.5 10.6193 14.5 12Z"/>
  <path fill-rule="evenodd" clip-rule="evenodd" d="M12 1C11.7322 1 11.4664 1.00959 11.2032 1.02845C10.4396 1.08316 9.85767 1.64472 9.69085 2.33178L9.33881 3.7817C9.31981 3.85995 9.24927 3.95388 9.11444 4.00254C8.86586 4.09224 8.62269 4.19319 8.38555 4.30475C8.256 4.36569 8.13976 4.34921 8.07095 4.30729L6.79665 3.5309C6.19316 3.16321 5.38503 3.17741 4.80641 3.67799C4.40363 4.02644 4.02644 4.40363 3.67799 4.80641C3.17741 5.38503 3.16321 6.19316 3.5309 6.79665L4.30729 8.07095C4.34921 8.13976 4.36569 8.256 4.30475 8.38555C4.19318 8.62269 4.09224 8.86586 4.00254 9.11444C3.95388 9.24927 3.85995 9.31981 3.7817 9.33881L2.33178 9.69085C1.64472 9.85767 1.08316 10.4396 1.02845 11.2032C1.00959 11.4664 1 11.7322 1 12C1 12.2678 1.00959 12.5336 1.02845 12.7968C1.08316 13.5604 1.64472 14.1423 2.33178 14.3092L3.7817 14.6612C3.85995 14.6802 3.95388 14.7507 4.00254 14.8856C4.09224 15.1341 4.19318 15.3773 4.30475 15.6145C4.36569 15.744 4.34921 15.8602 4.30729 15.9291L3.5309 17.2034C3.16321 17.8068 3.17741 18.615 3.67799 19.1936C4.02644 19.5964 4.40363 19.9736 4.80641 20.322C5.38503 20.8226 6.19316 20.8368 6.79665 20.4691L8.07095 19.6927C8.13975 19.6508 8.256 19.6343 8.38555 19.6953C8.62269 19.8068 8.86586 19.9078 9.11444 19.9975C9.24927 20.0461 9.31981 20.14 9.33881 20.2183L9.69085 21.6682C9.85767 22.3553 10.4396 22.9168 11.2032 22.9715C11.4664 22.9904 11.7322 23 12 23C12.2678 23 12.5336 22.9904 12.7968 22.9715C13.5604 22.9168 14.1423 22.3553 14.3092 21.6682L14.6612 20.2183C14.6802 20.14 14.7507 20.0461 14.8856 19.9975C15.1341 19.9078 15.3773 19.8068 15.6145 19.6953C15.744 19.6343 15.8602 19.6508 15.9291 19.6927L17.2034 20.4691C17.8068 20.8368 18.615 20.8226 19.1936 20.322C19.5964 19.9736 19.9736 19.5964 20.322 19.1936C20.8226 18.615 20.8368 17.8068 20.4691 17.2034L19.6927 15.929C19.6508 15.8602 19.6343 15.744 19.6953 15.6145C19.8068 15.3773 19.9078 15.1341 19.9975 14.8856C20.0461 14.7507 20.14 14.6802 20.2183 14.6612L21.6682 14.3092C22.3553 14.1423 22.9168 13.5604 22.9715 12.7968C22.9904 12.5336 23 12.2678 23 12C23 11.7322 22.9904 11.4664 22.9715 11.2032C22.9168 10.4396 22.3553 9.85767 21.6682 9.69085L20.2183 9.33881C20.14 9.31981 20.0461 9.24927 19.9975 9.11444C19.9078 8.86586 19.8068 8.62269 19.6953 8.38555C19.6343 8.256 19.6508 8.13976 19.6927 8.07095L20.4691 6.79665C20.8368 6.19316 20.8226 5.38503 20.322 4.80641C19.9736 4.40363 19.5964 4.02644 19.1936 3.67799C18.615 3.17741 17.8068 3.16321 17.2034 3.5309L15.929 4.30729C15.8602 4.34921 15.744 4.36569 15.6145 4.30475C15.3773 4.19318 15.1341 4.09224 14.8856 4.00254C14.7507 3.95388 14.6802 3.85995 14.6612 3.7817L14.3092 2.33178C14.1423 1.64472 13.5604 1.08316 12.7968 1.02845C12.5336 1.00959 12.2678 1 12 1ZM11.3104 2.52461C11.538 2.5083 11.768 2.5 12 2.5C12.232 2.5 12.462 2.5083 12.6896 2.52461C12.7451 2.52859 12.8246 2.57475 12.8515 2.6857L13.2035 4.13562C13.3558 4.76252 13.8287 5.21583 14.3764 5.41348C14.5808 5.48724 14.7808 5.57026 14.9759 5.66205C15.5032 5.9101 16.1584 5.92401 16.7095 5.58826L17.9838 4.81187C18.0813 4.75249 18.1701 4.77595 18.2122 4.81239C18.5604 5.11359 18.8864 5.43965 19.1876 5.7878C19.2241 5.82992 19.2475 5.91874 19.1881 6.01619L18.4117 7.29049C18.076 7.84156 18.0899 8.49682 18.3379 9.02408C18.4297 9.21919 18.5128 9.4192 18.5865 9.6236C18.7842 10.1713 19.2375 10.6442 19.8644 10.7965L21.3143 11.1485C21.4252 11.1754 21.4714 11.2549 21.4754 11.3104C21.4917 11.538 21.5 11.768 21.5 12C21.5 12.232 21.4917 12.462 21.4754 12.6896C21.4714 12.7451 21.4252 12.8246 21.3143 12.8515L19.8644 13.2035C19.2375 13.3558 18.7842 13.8287 18.5865 14.3764C18.5128 14.5808 18.4297 14.7808 18.3379 14.9759C18.0899 15.5032 18.076 16.1584 18.4117 16.7095L19.1881 17.9838C19.2475 18.0813 19.224 18.1701 19.1876 18.2122C18.8864 18.5604 18.5604 18.8864 18.2122 19.1876C18.1701 19.2241 18.0813 19.2475 17.9838 19.1881L16.7095 18.4117C16.1584 18.076 15.5032 18.0899 14.9759 18.3379C14.7808 18.4297 14.5808 18.5128 14.3764 18.5865C13.8287 18.7842 13.3558 19.2375 13.2035 19.8644L12.8515 21.3143C12.8246 21.4252 12.7451 21.4714 12.6896 21.4754C12.462 21.4917 12.232 21.5 12 21.5C11.768 21.5 11.538 21.4917 11.3104 21.4754C11.2549 21.4714 11.1754 21.4252 11.1485 21.3143L10.7965 19.8644C10.6442 19.2375 10.1713 18.7842 9.6236 18.5865C9.4192 18.5128 9.21919 18.4297 9.02408 18.3379C8.49682 18.0899 7.84156 18.076 7.29049 18.4117L6.01619 19.1881C5.91873 19.2475 5.82992 19.224 5.7878 19.1876C5.43965 18.8864 5.11359 18.5604 4.81239 18.2122C4.77595 18.1701 4.75249 18.0813 4.81187 17.9838L5.58826 16.7095C5.92401 16.1584 5.9101 15.5032 5.66205 14.9759C5.57026 14.7808 5.48724 14.5808 5.41348 14.3764C5.21583 13.8287 4.76252 13.3558 4.13562 13.2035L2.6857 12.8515C2.57475 12.8246 2.52859 12.7451 2.52461 12.6896C2.5083 12.462 2.5 12.232 2.5 12C2.5 11.768 2.5083 11.538 2.52461 11.3104C2.52859 11.2549 2.57475 11.1754 2.6857 11.1485L4.13562 10.7965C4.76252 10.6442 5.21583 10.1713 5.41348 9.6236C5.48724 9.4192 5.57026 9.21919 5.66205 9.02408C5.9101 8.49682 5.92401 7.84156 5.58826 7.29049L4.81187 6.01619C4.75249 5.91874 4.77595 5.82992 4.81239 5.7878C5.11359 5.43965 5.43965 5.11359 5.7878 4.81239C5.82992 4.77595 5.91874 4.75249 6.01619 4.81187L7.29049 5.58826C7.84156 5.92401 8.49682 5.9101 9.02408 5.66205C9.21919 5.57026 9.4192 5.48724 9.6236 5.41348C10.1713 5.21583 10.6442 4.76252 10.7965 4.13562L11.1485 2.6857C11.1754 2.57475 11.2549 2.52859 11.3104 2.52461Z"/>
</svg>

<svg xmlns="http://www.w3.org/2000/svg" width="24" height="24" viewBox="0 0 24 24"><path fill-rule="evenodd" d="M16 12a4 4 0 11-8 0 4 4 0 018 0zm-1.5 0a2.5 2.5 0 11-5 0 2.5 2.5 0 015 0z"/><path fill-rule="evenodd" d="M12 1c-.268 0-.534.01-.797.028-.763.055-1.345.617-1.512 1.304l-.352 1.45c-.02.078-.09.172-.225.22a8.45 8.45 0 00-.728.303c-.13.06-.246.044-.315.002l-1.274-.776c-.604-.368-1.412-.354-1.99.147-.403.348-.78.726-1.129 1.128-.5.579-.515 1.387-.147 1.99l.776 1.275c.042.069.059.185-.002.315-.112.237-.213.48-.302.728-.05.135-.143.206-.221.225l-1.45.352c-.687.167-1.249.749-1.304 1.512a11.149 11.149 0 000 1.594c.055.763.617 1.345 1.304 1.512l1.45.352c.078.02.172.09.22.225.09.248.191.491.303.729.06.129.044.245.002.314l-.776 1.274c-.368.604-.354 1.412.147 1.99.348.403.726.78 1.128 1.129.579.5 1.387.515 1.99.147l1.275-.776c.069-.042.185-.059.315.002.237.112.48.213.728.302.135.05.206.143.225.221l.352 1.45c.167.687.749 1.249 1.512 1.303a11.125 11.125 0 001.594 0c.763-.054 1.345-.616 1.512-1.303l.352-1.45c.02-.078.09-.172.225-.22.248-.09.491-.191.729-.303.129-.06.245-.044.314-.002l1.274.776c.604.368 1.412.354 1.99-.147.403-.348.78-.726 1.129-1.128.5-.579.515-1.387.147-1.99l-.776-1.275c-.042-.069-.059-.185.002-.315.112-.237.213-.48.302-.728.05-.135.143-.206.221-.225l1.45-.352c.687-.167 1.249-.749 1.303-1.512a11.125 11.125 0 000-1.594c-.054-.763-.616-1.345-1.303-1.512l-1.45-.352c-.078-.02-.172-.09-.22-.225a8.469 8.469 0 00-.303-.728c-.06-.13-.044-.246-.002-.315l.776-1.274c.368-.604.354-1.412-.147-1.99-.348-.403-.726-.78-1.128-1.129-.579-.5-1.387-.515-1.99-.147l-1.275.776c-.069.042-.185.059-.315-.002a8.465 8.465 0 00-.728-.302c-.135-.05-.206-.143-.225-.221l-.352-1.45c-.167-.687-.749-1.249-1.512-1.304A11.149 11.149 0 0012 1zm-.69 1.525a9.648 9.648 0 011.38 0c.055.004.135.05.162.16l.351 1.45c.153.628.626 1.08 1.173 1.278.205.074.405.157.6.249a1.832 1.832 0 001.733-.074l1.275-.776c.097-.06.186-.036.228 0 .348.302.674.628.976.976.036.042.06.13 0 .228l-.776 1.274a1.832 1.832 0 00-.074 1.734c.092.195.175.395.248.6.198.547.652 1.02 1.278 1.172l1.45.353c.111.026.157.106.161.161a9.653 9.653 0 010 1.38c-.004.055-.05.135-.16.162l-1.45.351a1.833 1.833 0 00-1.278 1.173 6.926 6.926 0 01-.25.6 1.832 1.832 0 00.075 1.733l.776 1.275c.06.097.036.186 0 .228a9.555 9.555 0 01-.976.976c-.042.036-.13.06-.228 0l-1.275-.776a1.832 1.832 0 00-1.733-.074 6.926 6.926 0 01-.6.248 1.833 1.833 0 00-1.172 1.278l-.353 1.45c-.026.111-.106.157-.161.161a9.653 9.653 0 01-1.38 0c-.055-.004-.135-.05-.162-.16l-.351-1.45a1.833 1.833 0 00-1.173-1.278 6.928 6.928 0 01-.6-.25 1.832 1.832 0 00-1.734.075l-1.274.776c-.097.06-.186.036-.228 0a9.56 9.56 0 01-.976-.976c-.036-.042-.06-.13 0-.228l.776-1.275a1.832 1.832 0 00.074-1.733 6.948 6.948 0 01-.249-.6 1.833 1.833 0 00-1.277-1.172l-1.45-.353c-.111-.026-.157-.106-.161-.161a9.648 9.648 0 010-1.38c.004-.055.05-.135.16-.162l1.45-.351a1.833 1.833 0 001.278-1.173 6.95 6.95 0 01.249-.6 1.832 1.832 0 00-.074-1.734l-.776-1.274c-.06-.097-.036-.186 0-.228.302-.348.628-.674.976-.976.042-.036.13-.06.228 0l1.274.776a1.832 1.832 0 001.734.074 6.95 6.95 0 01.6-.249 1.833 1.833 0 001.172-1.277l.353-1.45c.026-.111.106-.157.161-.161z"/></svg>
